static/assets/images/icons/network.svg

<svg width="256" height="256" viewBox="0 0 256 256" fill="none" xmlns="http://www.w3.org/2000/svg">
<path d="M42.0595 24.3566C38.301 25.5187 31.4885 29.8581 28.6942 32.8695C19.6088 42.6633 18.4227 58.6124 25.9196 70.1742C28.4411 74.0631 35.1045 79.6951 39.1497 81.3568C47.1348 84.6374 56.7198 84.4712 63.878 80.9273L67.8579 78.957L94.2502 100.285L93.1901 103.055C91.6518 107.074 90.6602 114.921 91.1386 119.29C91.6774 124.208 93.6199 130.085 96.1676 134.503L98.2032 138.032L69.5026 174.989L65.4301 174.121C56.6253 172.246 49.8152 173.394 42.3064 178.019C31.2653 184.82 25.7596 198.68 29.1032 211.258C33.9787 229.601 54.25 239.149 71.3424 231.154C84.3839 225.052 91.594 210.26 88.1077 196.756C87.466 194.27 86.2907 191.108 85.496 189.728L84.0511 187.221L113.07 149.897L115.622 150.857C117.025 151.385 119.259 152.044 120.585 152.322L122.997 152.827L123.912 161.409C119.031 165.049 116.143 171.099 116.835 177.592C117.878 187.377 126.656 194.463 136.442 193.42C146.227 192.377 153.314 183.599 152.27 173.814C151.606 167.583 147.804 162.445 142.603 159.806L141.664 150.996L150.876 145.998L176.887 166.988L176.029 171.381C174.771 177.819 174.88 181.47 176.48 186.432C178.457 192.568 181.323 196.915 186.129 201.066C201.942 214.727 226.74 208.2 234.008 188.463C237.449 179.117 236.419 169.757 231.02 161.337C222.645 148.272 204.587 143.55 191.605 151.03L189.135 152.453L162.763 131.142L163.99 127.479C165.522 122.902 166.231 116.284 165.718 111.339C165.265 106.969 162.641 99.5062 160.291 95.904L158.671 93.421L172.179 76.6499L175.492 77.1776C186.175 78.8804 198.452 70.8356 201.145 60.3671C203.763 50.1903 200.34 40.4582 192.027 34.4469C181.548 26.8702 166.571 29.6432 158.826 40.5943C154.864 46.1966 153.729 55.2534 156.193 61.5984L157.408 64.7257L143.861 81.4645L141.092 80.4048C136.974 78.8288 129.195 77.8814 124.491 78.3829C119.785 78.8846 112.382 81.4506 108.687 83.8608L106.202 85.4812L79.7298 64.1326L80.6137 61.3771C84.0062 50.7964 79.6972 37.3431 70.5245 29.8774C62.6035 23.4307 51.8203 21.3393 42.0595 24.3566Z" fill="black"/>
</svg>

<svg xmlns="http://www.w3.org/2000/svg" fill="none" viewBox="0 0 256 256"><path fill="#000" d="M42.06 24.357c-3.759 1.162-10.572 5.501-13.366 8.513-9.085 9.793-10.271 25.742-2.774 37.304 2.521 3.89 9.185 9.521 13.23 11.183 7.985 3.28 17.57 3.114 24.728-.43l3.98-1.97 26.392 21.328-1.06 2.77c-1.538 4.019-2.53 11.866-2.051 16.235.538 4.918 2.48 10.795 5.029 15.213l2.035 3.529-28.7 36.957-4.073-.868c-8.805-1.875-15.615-.727-23.124 3.898-11.04 6.801-16.546 20.661-13.203 33.239 4.876 18.343 25.147 27.891 42.24 19.896 13.04-6.102 20.251-20.894 16.765-34.398-.642-2.486-1.817-5.648-2.612-7.028l-1.445-2.507 29.019-37.324 2.552.96c1.403.528 3.637 1.187 4.963 1.465l2.412.505.915 8.582c-4.881 3.64-7.769 9.69-7.077 16.183 1.043 9.785 9.821 16.871 19.607 15.828s16.872-9.821 15.828-19.606c-.664-6.231-4.466-11.369-9.667-14.008l-.939-8.81 9.212-4.998 26.011 20.99-.858 4.393c-1.258 6.438-1.149 10.089.451 15.051 1.977 6.136 4.843 10.483 9.649 14.634 15.813 13.661 40.611 7.134 47.879-12.603 3.441-9.346 2.411-18.706-2.988-27.126-8.375-13.065-26.433-17.787-39.415-10.307l-2.47 1.423-26.372-21.311 1.227-3.663c1.532-4.577 2.241-11.195 1.728-16.14-.453-4.37-3.077-11.833-5.427-15.435l-1.62-2.483 13.508-16.771 3.313.528c10.683 1.702 22.96-6.342 25.653-16.81 2.618-10.178-.805-19.91-9.118-25.921-10.479-7.577-25.456-4.804-33.201 6.147-3.962 5.603-5.097 14.66-2.633 21.004l1.215 3.128-13.547 16.739-2.769-1.06c-4.118-1.576-11.897-2.524-16.601-2.022-4.706.502-12.109 3.068-15.804 5.478l-2.485 1.62L79.73 64.133l.884-2.756c3.392-10.58-.917-24.034-10.09-31.5-7.92-6.446-18.704-8.538-28.464-5.52"/></svg>
